X: 1
T:Kl vals (  ) from Lolland
R:Waltz
O:Denmark
M:3/4
K:D
A2|\
df cf Bf | A2A2A2 | gf ed eA | fe dc dA |\
df cf Bf | A2A2A2 | gf ed eA | d2d2z2 :|
|:\
g2e4 | e^d ec BA | f2d4 | dc de dA | \
dB dG BG | FA dA fd | c2 BA Bc | d2 d2 z2 :|
